scalable/actions/format-justify-right.svg

<svg xmlns="http://www.w3.org/2000/svg" viewBox="0 0 24 24">
  <path fill="#333" d="M21.955 2v2.2227h-20V2zm.044922 4.4453V8.666h-12.045V6.4453zm-.04492 4.4434v2.2227h-20v-2.2227zm.04492 4.4453v2.2207h-12.045V15.334zm-.04492 4.4434v2.2227h-20v-2.2227z"/>
</svg>

<svg xmlns="http://www.w3.org/2000/svg" viewBox="0 0 24 24"><path fill="#333" d="M21.955 2v2.223h-20V2zM22 6.445v2.221H9.955v-2.22zm-.045 4.444v2.222h-20V10.89zM22 15.334v2.22H9.955v-2.22zm-.045 4.443V22h-20v-2.223z"/></svg>
